X: 35726
T: Saint Patrick's Day
R: jig
M: 6/8
K: Fmajor
C|:F3/2G/2F FGA|c3/2d/2c cAF|A3/2G/2A FDC|1 D3/2E/2D D2 C:|2 D3 F3||
cde f2 d|e2 c d2 A|cde f2 d|e2 c d2 z|
cde fed|edc def|F3/2G/2F FGA|c3/2d/2c cAF|
A3/2G/2A FDC|D3/2E/2D D2 C|F3/2G/2F FGA|c3/2d/2c cAF|
A3/2G/2A FDC|D3 F2 z||

